teeny/outline/bag-alt.svg

<svg width="15" height="15" viewBox="0 0 15 15" fill="none" xmlns="http://www.w3.org/2000/svg">
<path d="M10.5 2L10.5 4.5C10.5 6.15685 9.15685 7.5 7.5 7.5C5.84315 7.5 4.5 6.15685 4.5 4.5L4.5 2M1.5 1.5V13.5C1.5 14.0523 1.94772 14.5 2.5 14.5H12.5C13.0523 14.5 13.5 14.0523 13.5 13.5V1.5C13.5 0.947716 13.0523 0.5 12.5 0.5H2.5C1.94772 0.5 1.5 0.947715 1.5 1.5Z" stroke="black"/>
</svg>

<svg viewBox="0 0 15 15" xmlns="http://www.w3.org/2000/svg"><path fill="none" stroke="#000" d="M10.5 2v2.5c0 1.65-1.35 3-3 3 -1.66 0-3-1.35-3-3V2m-3-.5v12c0 .55.44 1 1 1h10c.55 0 1-.45 1-1v-12c0-.56-.45-1-1-1h-10c-.56 0-1 .44-1 1Z"/></svg>
